X:177
T:Drops Of Brandy. JaW.177
M:9/8
L:1/8
Q:3/8=120
S:James Winder Ms, Lancashire, 1835-41
R:.Slip Jig
O:England
A:Wyresdale,Lancashire
Z:vmp.Chris Partington, Aug 2004
K:G
G2B B>AB B>AB|”_A in MS”G2B B>AG Bdg|G2B B>AB B>AG|A3 EFG FED:|!
|:G2B gdB gdB|G2B gdB d2a|G2B adB adB|cde edB A2B:|

